X:53
T:Dans les prisons de Nantes
R:ronde
C:trad.
A:Maine
O:France
Z:S. Piron
M:2/4
L:1/8
Q:1/4=90
K:Bb
B2|FBdB|B-BBc|dc/2d/2ed|cBB2|FBdB|B-BG2|FFGG|FBAc|B2d>c|B2||
W:
W:Dans les prisons de Nantes
W:Tradri, idri, drre
W:Dans les prisons de Nantes
W:Un prisonnier, il y a. (bis)
W:
W:Personn' ne vient le voir
W:Que la fille du gelier. (bis)
W:
W:Pour y porter  boire
W:A boire et  manger. (bis)
W:
W:Et des chemises blanches
W:Quand il veut en changer. (bis)
W:
W:Ah! si je dois mourir
W:Dchanez-moi les pieds. (bis)
W:
W:La belle toujours tendre
W:Lui dchana les pieds. (bis)
W:
W:Il sauta par la f'ntre
W:Dans la mer est tomb. (bis)
W:
W:Il vogua d'vague en vague
W:Comme un poisson nageant. (bis)
W:
W:Quand il fut juste au bord
W:Il se mit  crier (bis)
W:
W:Ah! si je r'tourne  Nantes
W:Belle je t'pouserai. (bis)
